X:1
T:[ID 3-69]
T:[ID 3-69]
T:Bezeichnung standardisiert: Andante Andante Primo
T:Urheber unbekannt Datum in der hier transkribierten schriftlichen Quelle: 1767
C:Urheber unbekannt
C:Datum in der hier transkribierten schriftlichen Quelle: 1767
%%score 1 2
L:1/8
M:2/4
K:G
V:1 treble nm="Primo"
V:2 treble nm="Secondo"
V:1
 G/B/ | ddde | d/B/G z A/B/ | cc (3a/g/f/ (3e/d/c/ | cB z A/A/ | B>g f/e/d/^c/ | d/A/B/^c/ dA/A/ | %7
 B>g f/e/d/^c/ | d3 :: g/d/ | d/B/B/G/ D/F/A/c/ | cB z g/d/ | d/B/B/G/ D/F/A/c/ | cB z D/F/ | %14
 GGGG | B/g/f/e/ dd/d/ | (3e/d/c/ (3B/A/G/ B/A/G/F/ | G3 :| %18
V:2
 !fermata!z | BBBc | B2 z F/G/ | AA (3f/e/d/ (3c/B/A/ | AG z F/F/ | G>B A/G/F/E/ | F/A/G/E/ FF/F/ | %7
 G>B A/G/F/E/ | F3 :: c/B/ | B/G/G/D/ D/F/F/A/ | AG z d/B/ | B/G/G/D/ D/F/F/A/ | AG z D | %14
 G/g/f/e/ d/c/B/A/ | G/e/d/c/ BB/B/ | (3c/B/A/ G/B/ d/c/B/A/ | [GB]3 :| %18

